src/pos-icons/bookmark-remove.svg

<svg height="24" viewBox="0 0 24 24" width="24" xmlns="http://www.w3.org/2000/svg"><path d="m17 3a2 2 0 0 1 2 2v16l-7-3-7 3v-16c0-1.11.9-2 2-2zm-8.83 5.58 2.42 2.42-2.42 2.41 1.42 1.42 2.41-2.42 2.41 2.42 1.42-1.42-2.42-2.41 2.42-2.42-1.42-1.41-2.41 2.41-2.41-2.41z"/></svg>

<?xml version="1.0" encoding="UTF-8"?><!DOCTYPE svg PUBLIC "-//W3C//DTD SVG 1.1//EN" "http://www.w3.org/Graphics/SVG/1.1/DTD/svg11.dtd"><svg xmlns="http://www.w3.org/2000/svg" xmlns:xlink="http://www.w3.org/1999/xlink" version="1.1" id="mdi-bookmark-remove" width="24" height="24" viewBox="0 0 24 24"><path d="M17,3A2,2 0 0,1 19,5V21L12,18L5,21V5C5,3.89 5.9,3 7,3H17M8.17,8.58L10.59,11L8.17,13.41L9.59,14.83L12,12.41L14.41,14.83L15.83,13.41L13.41,11L15.83,8.58L14.41,7.17L12,9.58L9.59,7.17L8.17,8.58Z" /></svg>
